actions/symbolic/insert-image-symbolic.svg

<svg viewBox="0 0 16 16" xmlns="http://www.w3.org/2000/svg"><path d="m4.25 2c-.75 0-.75.7501833-.75.7501833v5.9985335c.0000225.7501832.75.7501832.75.7501832h7.500001s.750023 0 .749999-.7501832v-5.9985335c-.000022-.7501833-.749999-.7501833-.749999-.7501833zm2.2500003 2.6227084 2.2500001 2.2505501 1.1250006-1.1252751 1.124999 1.1252751v1.1252748h-5.9999998v-1.8754583zm-.7500002 6.3765576 2.2500004 3.000734 2.2500005-3.000734z" fill="#bebebe"/></svg>

<?xml version="1.0" encoding="UTF-8" standalone="no"?>
<svg
   xmlns:dc="http://purl.org/dc/elements/1.1/"
   xmlns:cc="http://creativecommons.org/ns#"
   xmlns:rdf="http://www.w3.org/1999/02/22-rdf-syntax-ns#"
   xmlns:svg="http://www.w3.org/2000/svg"
   xmlns="http://www.w3.org/2000/svg"
   xmlns:sodipodi="http://sodipodi.sourceforge.net/DTD/sodipodi-0.dtd"
   xmlns:inkscape="http://www.inkscape.org/namespaces/inkscape"
   viewBox="0 0 16 16"
   id="svg3255"
   version="1.1"
   inkscape:version="0.91 r13725"
   sodipodi:docname="insert-image-symbolic.svg">
  <metadata
     id="metadata3263">
    <rdf:RDF>
      <cc:Work
         rdf:about="">
        <dc:format>image/svg+xml</dc:format>
        <dc:type
           rdf:resource="http://purl.org/dc/dcmitype/StillImage" />
      </cc:Work>
    </rdf:RDF>
  </metadata>
  <sodipodi:namedview
     pagecolor="#ffffff"
     bordercolor="#666666"
     borderopacity="1"
     objecttolerance="10"
     gridtolerance="10"
     guidetolerance="10"
     inkscape:pageopacity="0"
     inkscape:pageshadow="2"
     inkscape:window-width="640"
     inkscape:window-height="480"
     id="namedview3261"
     showgrid="false"
     inkscape:zoom="39.8125"
     inkscape:cx="5.0863422"
     inkscape:cy="8"
     inkscape:current-layer="svg3255" />
  <defs
     id="defs3051">
    <style
       type="text/css"
       id="current-color-scheme">
      .ColorScheme-Text {
        color:#bebebe;
      }
      </style>
  </defs>
  <path
     style="color:#bebebe;fill:currentColor;fill-opacity:1;stroke:none"
     class="ColorScheme-Text"
     d="M 4.25,2 C 3.5,2 3.5,2.7501833 3.5,2.7501833 l 0,5.9985335 C 3.5000225,9.4989 4.25,9.4989 4.25,9.4989 l 7.500001,0 c 0,0 0.750023,0 0.749999,-0.7501832 l 0,-5.9985335 C 12.499978,2 11.750001,2 11.750001,2 L 4.25,2 Z M 6.5000003,4.6227084 8.7500004,6.8732585 9.875001,5.7479834 11,6.8732585 l 0,1.1252748 -5.9999998,0 0,-1.8754583 1.5000001,-1.5003666 z M 5.7500001,10.999266 8.0000005,14 l 2.2500005,-3.000734 -4.5000009,0 z"
     id="path3259"
     inkscape:connector-curvature="0" />
</svg>
